!!!OTL: 101. Skotshne
!!!Genre:	Skotshne
!!!Mode:	Minor
!!!Listening/dance:	dance
!!!One_Mode:	no
**kern
*thru
!!pagebreak:original
*clefG2
*k[f#]
*G:
*M2/4
*>A
=1
!LO:TX:a:i:t=G-major
8dL
8g
8f#
8gJ
=2
8aL
8aJ
4a
=3
8bL
8a
8g
8ddJ
=4
8aL
8aJ
4a
=5
8dL
8g
8f#
8gJ
=6
4a
4b
=7
8aL
8g
8f#
8aJ
*>A1
=8
(8gL
16aL
16gJJ)
8f#L
8eJ
!!linebreak:original
*>A
=1
!LO:TX:a:i:t=G-major
8dL
8g
8f#
8gJ
=2
8aL
8aJ
4a
=3
8bL
8a
8g
8ddJ
=4
8aL
8aJ
4a
=5
8dL
8g
8f#
8gJ
=6
4a
4b
=7
8aL
8g
8f#
8aJ
*>A2
=9:|!
2g
*>B
=10!|:
*k[b-e-]
*-
